portal/assets/img/component/accordion/anatomy-accordion-1.svg

<svg width="626" height="189" viewBox="0 0 626 189" fill="none" xmlns="http://www.w3.org/2000/svg">
<circle cx="187" cy="173" r="12" fill="#344054"/>
<path d="M182.943 179V177.227L187.085 173.392C187.438 173.051 187.733 172.744 187.972 172.472C188.214 172.199 188.398 171.932 188.523 171.67C188.648 171.405 188.71 171.119 188.71 170.812C188.71 170.472 188.633 170.178 188.477 169.932C188.322 169.682 188.11 169.491 187.841 169.358C187.572 169.222 187.267 169.153 186.926 169.153C186.57 169.153 186.259 169.225 185.994 169.369C185.729 169.513 185.525 169.72 185.381 169.989C185.237 170.258 185.165 170.578 185.165 170.949H182.83C182.83 170.187 183.002 169.527 183.347 168.966C183.691 168.405 184.174 167.972 184.795 167.665C185.417 167.358 186.133 167.205 186.943 167.205C187.777 167.205 188.502 167.352 189.119 167.648C189.741 167.939 190.223 168.345 190.568 168.864C190.913 169.383 191.085 169.977 191.085 170.648C191.085 171.087 190.998 171.521 190.824 171.949C190.653 172.377 190.348 172.852 189.909 173.375C189.47 173.894 188.85 174.517 188.051 175.244L186.352 176.909V176.989H191.239V179H182.943Z" fill="white"/>
<path d="M187 161.5V114" stroke="#344054" stroke-dasharray="2 2"/>
<path d="M0 54C0 51.7909 1.79086 50 4 50H622C624.209 50 626 51.7909 626 54V110C626 112.209 624.209 114 622 114H4.00001C1.79087 114 0 112.209 0 110V54Z" fill="white"/>
<path d="M25.8864 88H24.4091L28.6818 76.3636H30.1364L34.4091 88H32.9318L29.4545 78.2045H29.3636L25.8864 88ZM26.4318 83.4545H32.3864V84.7045H26.4318V83.4545ZM39.5852 88.1818C38.767 88.1818 38.0625 87.9886 37.4716 87.6023C36.8807 87.2159 36.4261 86.6837 36.108 86.0057C35.7898 85.3277 35.6307 84.553 35.6307 83.6818C35.6307 82.7955 35.7936 82.0133 36.1193 81.3352C36.4489 80.6534 36.9072 80.1212 37.4943 79.7386C38.0852 79.3523 38.7746 79.1591 39.5625 79.1591C40.1761 79.1591 40.7292 79.2727 41.2216 79.5C41.714 79.7273 42.1174 80.0455 42.4318 80.4545C42.7462 80.8636 42.9413 81.3409 43.017 81.8864H41.6761C41.5739 81.4886 41.3466 81.1364 40.9943 80.8295C40.6458 80.5189 40.1761 80.3636 39.5852 80.3636C39.0625 80.3636 38.6042 80.5 38.2102 80.7727C37.8201 81.0417 37.5152 81.4223 37.2955 81.9148C37.0795 82.4034 36.9716 82.9773 36.9716 83.6364C36.9716 84.3106 37.0777 84.8977 37.2898 85.3977C37.5057 85.8977 37.8087 86.286 38.1989 86.5625C38.5928 86.839 39.0549 86.9773 39.5852 86.9773C39.9337 86.9773 40.25 86.9167 40.5341 86.7955C40.8182 86.6742 41.0587 86.5 41.2557 86.2727C41.4527 86.0455 41.5928 85.7727 41.6761 85.4545H43.017C42.9413 85.9697 42.7538 86.4337 42.4545 86.8466C42.1591 87.2557 41.767 87.5814 41.2784 87.8239C40.7936 88.0625 40.2292 88.1818 39.5852 88.1818ZM48.5227 88.1818C47.7045 88.1818 47 87.9886 46.4091 87.6023C45.8182 87.2159 45.3636 86.6837 45.0455 86.0057C44.7273 85.3277 44.5682 84.553 44.5682 83.6818C44.5682 82.7955 44.7311 82.0133 45.0568 81.3352C45.3864 80.6534 45.8447 80.1212 46.4318 79.7386C47.0227 79.3523 47.7121 79.1591 48.5 79.1591C49.1136 79.1591 49.6667 79.2727 50.1591 79.5C50.6515 79.7273 51.0549 80.0455 51.3693 80.4545C51.6837 80.8636 51.8788 81.3409 51.9545 81.8864H50.6136C50.5114 81.4886 50.2841 81.1364 49.9318 80.8295C49.5833 80.5189 49.1136 80.3636 48.5227 80.3636C48 80.3636 47.5417 80.5 47.1477 80.7727C46.7576 81.0417 46.4527 81.4223 46.233 81.9148C46.017 82.4034 45.9091 82.9773 45.9091 83.6364C45.9091 84.3106 46.0152 84.8977 46.2273 85.3977C46.4432 85.8977 46.7462 86.286 47.1364 86.5625C47.5303 86.839 47.9924 86.9773 48.5227 86.9773C48.8712 86.9773 49.1875 86.9167 49.4716 86.7955C49.7557 86.6742 49.9962 86.5 50.1932 86.2727C50.3902 86.0455 50.5303 85.7727 50.6136 85.4545H51.9545C51.8788 85.9697 51.6913 86.4337 51.392 86.8466C51.0966 87.2557 50.7045 87.5814 50.2159 87.8239C49.7311 88.0625 49.1667 88.1818 48.5227 88.1818ZM57.4602 88.1818C56.6723 88.1818 55.9811 87.9943 55.3864 87.6193C54.7955 87.2443 54.3333 86.7197 54 86.0455C53.6705 85.3712 53.5057 84.5833 53.5057 83.6818C53.5057 82.7727 53.6705 81.9792 54 81.3011C54.3333 80.6231 54.7955 80.0966 55.3864 79.7216C55.9811 79.3466 56.6723 79.1591 57.4602 79.1591C58.2481 79.1591 58.9375 79.3466 59.5284 79.7216C60.1231 80.0966 60.5852 80.6231 60.9148 81.3011C61.2481 81.9792 61.4148 82.7727 61.4148 83.6818C61.4148 84.5833 61.2481 85.3712 60.9148 86.0455C60.5852 86.7197 60.1231 87.2443 59.5284 87.6193C58.9375 87.9943 58.2481 88.1818 57.4602 88.1818ZM57.4602 86.9773C58.0587 86.9773 58.5511 86.8239 58.9375 86.517C59.3239 86.2102 59.6098 85.8068 59.7955 85.3068C59.9811 84.8068 60.0739 84.2652 60.0739 83.6818C60.0739 83.0985 59.9811 82.5549 59.7955 82.0511C59.6098 81.5473 59.3239 81.1402 58.9375 80.8295C58.5511 80.5189 58.0587 80.3636 57.4602 80.3636C56.8617 80.3636 56.3693 80.5189 55.983 80.8295C55.5966 81.1402 55.3106 81.5473 55.125 82.0511C54.9394 82.5549 54.8466 83.0985 54.8466 83.6818C54.8466 84.2652 54.9394 84.8068 55.125 85.3068C55.3106 85.8068 55.5966 86.2102 55.983 86.517C56.3693 86.8239 56.8617 86.9773 57.4602 86.9773ZM63.4616 88V79.2727H64.7571V80.5909H64.848C65.0071 80.1591 65.295 79.8087 65.7116 79.5398C66.1283 79.2708 66.598 79.1364 67.1207 79.1364C67.2192 79.1364 67.3423 79.1383 67.4901 79.142C67.6378 79.1458 67.7495 79.1515 67.8253 79.1591V80.5227C67.7798 80.5114 67.6757 80.4943 67.5128 80.4716C67.3537 80.4451 67.1851 80.4318 67.0071 80.4318C66.5829 80.4318 66.2041 80.5208 65.8707 80.6989C65.5412 80.8731 65.2798 81.1155 65.0866 81.4261C64.8973 81.733 64.8026 82.0833 64.8026 82.4773V88H63.4616ZM72.4446 88.1818C71.7173 88.1818 71.0753 87.9981 70.5185 87.6307C69.9616 87.2595 69.526 86.7367 69.2116 86.0625C68.8973 85.3845 68.7401 84.5833 68.7401 83.6591C68.7401 82.7424 68.8973 81.947 69.2116 81.2727C69.526 80.5985 69.9635 80.0777 70.5241 79.7102C71.0848 79.3428 71.7325 79.1591 72.4673 79.1591C73.0355 79.1591 73.4844 79.2538 73.8139 79.4432C74.1473 79.6288 74.401 79.8409 74.5753 80.0795C74.7533 80.3144 74.8916 80.5076 74.9901 80.6591H75.1037V76.3636H76.4446V88H75.1491V86.6591H74.9901C74.8916 86.8182 74.7514 87.0189 74.5696 87.2614C74.3878 87.5 74.1283 87.714 73.7912 87.9034C73.4541 88.089 73.0052 88.1818 72.4446 88.1818ZM72.6264 86.9773C73.1643 86.9773 73.6188 86.8371 73.9901 86.5568C74.3613 86.2727 74.6435 85.8807 74.8366 85.3807C75.0298 84.8769 75.1264 84.2955 75.1264 83.6364C75.1264 82.9848 75.0317 82.4148 74.8423 81.9261C74.6529 81.4337 74.3726 81.0511 74.0014 80.7784C73.6302 80.5019 73.1719 80.3636 72.6264 80.3636C72.0582 80.3636 71.5848 80.5095 71.206 80.8011C70.831 81.089 70.5488 81.4811 70.3594 81.9773C70.1738 82.4697 70.081 83.0227 70.081 83.6364C70.081 84.2576 70.1757 84.822 70.3651 85.3295C70.5582 85.8333 70.8423 86.2348 71.2173 86.5341C71.5961 86.8295 72.0658 86.9773 72.6264 86.9773ZM79.0866 88V79.2727H80.4276V88H79.0866ZM79.7685 77.8182C79.5071 77.8182 79.2817 77.7292 79.0923 77.5511C78.9067 77.3731 78.8139 77.1591 78.8139 76.9091C78.8139 76.6591 78.9067 76.4451 79.0923 76.267C79.2817 76.089 79.5071 76 79.7685 76C80.0298 76 80.2533 76.089 80.4389 76.267C80.6283 76.4451 80.723 76.6591 80.723 76.9091C80.723 77.1591 80.6283 77.3731 80.4389 77.5511C80.2533 77.7292 80.0298 77.8182 79.7685 77.8182ZM86.429 88.1818C85.6411 88.1818 84.9498 87.9943 84.3551 87.6193C83.7642 87.2443 83.3021 86.7197 82.9688 86.0455C82.6392 85.3712 82.4744 84.5833 82.4744 83.6818C82.4744 82.7727 82.6392 81.9792 82.9688 81.3011C83.3021 80.6231 83.7642 80.0966 84.3551 79.7216C84.9498 79.3466 85.6411 79.1591 86.429 79.1591C87.2169 79.1591 87.9063 79.3466 88.4972 79.7216C89.0919 80.0966 89.554 80.6231 89.8835 81.3011C90.2169 81.9792 90.3835 82.7727 90.3835 83.6818C90.3835 84.5833 90.2169 85.3712 89.8835 86.0455C89.554 86.7197 89.0919 87.2443 88.4972 87.6193C87.9063 87.9943 87.2169 88.1818 86.429 88.1818ZM86.429 86.9773C87.0275 86.9773 87.5199 86.8239 87.9062 86.517C88.2926 86.2102 88.5786 85.8068 88.7642 85.3068C88.9498 84.8068 89.0426 84.2652 89.0426 83.6818C89.0426 83.0985 88.9498 82.5549 88.7642 82.0511C88.5786 81.5473 88.2926 81.1402 87.9062 80.8295C87.5199 80.5189 87.0275 80.3636 86.429 80.3636C85.8305 80.3636 85.3381 80.5189 84.9517 80.8295C84.5653 81.1402 84.2794 81.5473 84.0938 82.0511C83.9081 82.5549 83.8153 83.0985 83.8153 83.6818C83.8153 84.2652 83.9081 84.8068 84.0938 85.3068C84.2794 85.8068 84.5653 86.2102 84.9517 86.517C85.3381 86.8239 85.8305 86.9773 86.429 86.9773ZM93.7713 82.75V88H92.4304V79.2727H93.7259V80.6364H93.8395C94.044 80.1932 94.3546 79.8371 94.7713 79.5682C95.188 79.2955 95.7259 79.1591 96.3849 79.1591C96.9759 79.1591 97.4929 79.2803 97.9361 79.5227C98.3793 79.7614 98.724 80.125 98.9702 80.6136C99.2164 81.0985 99.3395 81.7121 99.3395 82.4545V88H97.9986V82.5455C97.9986 81.8598 97.8205 81.3258 97.4645 80.9432C97.1084 80.5568 96.6198 80.3636 95.9986 80.3636C95.5705 80.3636 95.188 80.4564 94.8509 80.642C94.5175 80.8277 94.2543 81.0985 94.0611 81.4545C93.8679 81.8106 93.7713 82.2424 93.7713 82.75ZM106.29 88V79.2727H107.631V88H106.29ZM106.972 77.8182C106.71 77.8182 106.485 77.7292 106.295 77.5511C106.11 77.3731 106.017 77.1591 106.017 76.9091C106.017 76.6591 106.11 76.4451 106.295 76.267C106.485 76.089 106.71 76 106.972 76C107.233 76 107.456 76.089 107.642 76.267C107.831 76.4451 107.926 76.6591 107.926 76.9091C107.926 77.1591 107.831 77.3731 107.642 77.5511C107.456 77.7292 107.233 77.8182 106.972 77.8182ZM113.882 79.2727V80.4091H109.359V79.2727H113.882ZM110.678 77.1818H112.018V85.5C112.018 85.8788 112.073 86.1629 112.183 86.3523C112.297 86.5379 112.441 86.6629 112.615 86.7273C112.793 86.7879 112.981 86.8182 113.178 86.8182C113.325 86.8182 113.446 86.8106 113.541 86.7955C113.636 86.7765 113.712 86.7614 113.768 86.75L114.041 87.9545C113.95 87.9886 113.823 88.0227 113.661 88.0568C113.498 88.0947 113.291 88.1136 113.041 88.1136C112.662 88.1136 112.291 88.0322 111.928 87.8693C111.568 87.7064 111.268 87.4583 111.03 87.125C110.795 86.7917 110.678 86.3712 110.678 85.8636V77.1818ZM119.464 88.1818C118.624 88.1818 117.898 87.9962 117.288 87.625C116.682 87.25 116.214 86.7273 115.885 86.0568C115.559 85.3826 115.396 84.5985 115.396 83.7045C115.396 82.8106 115.559 82.0227 115.885 81.3409C116.214 80.6553 116.673 80.1212 117.26 79.7386C117.851 79.3523 118.54 79.1591 119.328 79.1591C119.783 79.1591 120.232 79.2348 120.675 79.3864C121.118 79.5379 121.521 79.7841 121.885 80.125C122.249 80.4621 122.538 80.9091 122.754 81.4659C122.97 82.0227 123.078 82.7083 123.078 83.5227V84.0909H116.351V82.9318H121.714C121.714 82.4394 121.616 82 121.419 81.6136C121.226 81.2273 120.949 80.9223 120.589 80.6989C120.233 80.4754 119.813 80.3636 119.328 80.3636C118.794 80.3636 118.332 80.4962 117.942 80.7614C117.555 81.0227 117.258 81.3636 117.05 81.7841C116.841 82.2045 116.737 82.6553 116.737 83.1364V83.9091C116.737 84.5682 116.851 85.1269 117.078 85.5852C117.309 86.0398 117.629 86.3864 118.038 86.625C118.447 86.8598 118.923 86.9773 119.464 86.9773C119.817 86.9773 120.135 86.928 120.419 86.8295C120.707 86.7273 120.955 86.5758 121.163 86.375C121.372 86.1705 121.533 85.9167 121.646 85.6136L122.942 85.9773C122.805 86.4167 122.576 86.803 122.254 87.1364C121.932 87.4659 121.535 87.7235 121.061 87.9091C120.588 88.0909 120.055 88.1818 119.464 88.1818ZM125.118 88V79.2727H126.413V80.6364H126.527C126.709 80.1705 127.002 79.8087 127.408 79.5511C127.813 79.2898 128.3 79.1591 128.868 79.1591C129.444 79.1591 129.923 79.2898 130.305 79.5511C130.692 79.8087 130.993 80.1705 131.209 80.6364H131.3C131.523 80.1856 131.858 79.8277 132.305 79.5625C132.752 79.2936 133.288 79.1591 133.913 79.1591C134.694 79.1591 135.332 79.4034 135.828 79.892C136.324 80.3769 136.572 81.1326 136.572 82.1591V88H135.232V82.1591C135.232 81.5152 135.055 81.0549 134.703 80.7784C134.351 80.5019 133.936 80.3636 133.459 80.3636C132.845 80.3636 132.37 80.5492 132.033 80.9205C131.696 81.2879 131.527 81.7538 131.527 82.3182V88H130.163V82.0227C130.163 81.5265 130.002 81.1269 129.68 80.8239C129.358 80.517 128.944 80.3636 128.436 80.3636C128.088 80.3636 127.762 80.4564 127.459 80.642C127.16 80.8277 126.917 81.0852 126.732 81.4148C126.55 81.7405 126.459 82.1174 126.459 82.5455V88H125.118ZM147.592 76.3636V88H146.183V77.8409H146.115L143.274 79.7273V78.2955L146.183 76.3636H147.592Z" fill="#344054"/>
<path fill-rule="evenodd" clip-rule="evenodd" d="M580.469 76.9689C580.539 76.8991 580.621 76.8437 580.713 76.8059C580.804 76.7681 580.901 76.7486 581 76.7486C581.099 76.7486 581.196 76.7681 581.287 76.8059C581.379 76.8437 581.461 76.8991 581.531 76.9689L590 85.4394L598.469 76.9689C598.539 76.8992 598.622 76.8439 598.713 76.8062C598.804 76.7684 598.901 76.749 599 76.749C599.099 76.749 599.196 76.7684 599.287 76.8062C599.378 76.8439 599.461 76.8992 599.531 76.9689C599.601 77.0387 599.656 77.1215 599.694 77.2126C599.732 77.3037 599.751 77.4013 599.751 77.4999C599.751 77.5986 599.732 77.6962 599.694 77.7873C599.656 77.8784 599.601 77.9612 599.531 78.0309L590.531 87.0309C590.461 87.1008 590.379 87.1562 590.287 87.194C590.196 87.2318 590.099 87.2513 590 87.2513C589.901 87.2513 589.804 87.2318 589.713 87.194C589.621 87.1562 589.539 87.1008 589.469 87.0309L580.469 78.0309C580.399 77.9613 580.344 77.8785 580.306 77.7874C580.268 77.6963 580.249 77.5986 580.249 77.4999C580.249 77.4013 580.268 77.3036 580.306 77.2125C580.344 77.1214 580.399 77.0386 580.469 76.9689Z" fill="#344054"/>
<path d="M4 51H622V49H4V51ZM625 54V110H627V54H625ZM622 113H4.00001V115H622V113ZM1 110V54H-1V110H1ZM4.00001 113C2.34315 113 1 111.657 1 110H-1C-1 112.761 1.23859 115 4.00001 115V113ZM625 110C625 111.657 623.657 113 622 113V115C624.761 115 627 112.761 627 110H625ZM622 51C623.657 51 625 52.3431 625 54H627C627 51.2386 624.761 49 622 49V51ZM4 49C1.23858 49 -1 51.2386 -1 54H1C1 52.3431 2.34315 51 4 51V49Z" fill="#98A2B3"/>
<circle cx="21" cy="16" r="12" fill="#344054"/>
<path d="M23.0057 10.3636V22H20.5455V12.6989H20.4773L17.8125 14.3693V12.1875L20.6932 10.3636H23.0057Z" fill="white"/>
<path d="M34 16H107V66" stroke="#344054" stroke-dasharray="2 2"/>
</svg>

<svg width="626" height="189" viewBox="0 0 626 189" fill="none" xmlns="http://www.w3.org/2000/svg"><circle cx="187" cy="173" r="12" fill="#344054"/><path d="M182.943 179v-1.773l4.142-3.835c.353-.341.648-.648.887-.92.242-.273.426-.54.551-.802.125-.265.187-.551.187-.858 0-.34-.077-.634-.233-.88a1.53 1.53 0 0 0-.636-.574 2 2 0 0 0-.915-.205c-.356 0-.667.072-.932.216a1.49 1.49 0 0 0-.613.62c-.144.269-.216.589-.216.96h-2.335c0-.762.172-1.422.517-1.983a3.446 3.446 0 0 1 1.448-1.301c.622-.307 1.338-.46 2.148-.46.834 0 1.559.147 2.176.443.622.291 1.104.697 1.449 1.216s.517 1.113.517 1.784c0 .439-.087.873-.261 1.301-.171.428-.476.903-.915 1.426-.439.519-1.059 1.142-1.858 1.869l-1.699 1.665v.08h4.887V179h-8.296Z" fill="#fff"/><path d="M187 161.5V114" stroke="#344054" stroke-dasharray="2 2"/><path d="M0 54a4 4 0 0 1 4-4h618a4 4 0 0 1 4 4v56a4 4 0 0 1-4 4H4a4 4 0 0 1-4-4V54Z" fill="#fff"/><path d="M25.886 88H24.41l4.273-11.636h1.454L34.41 88h-1.477l-3.478-9.796h-.09L25.886 88Zm.546-4.546h5.954v1.25h-5.954v-1.25Zm13.153 4.728c-.818 0-1.523-.193-2.113-.58a3.777 3.777 0 0 1-1.364-1.596c-.318-.678-.477-1.453-.477-2.324 0-.886.163-1.669.488-2.347.33-.682.788-1.214 1.375-1.596.591-.387 1.28-.58 2.069-.58.613 0 1.166.114 1.659.341a3.19 3.19 0 0 1 1.21.954c.314.41.51.887.585 1.432h-1.34c-.103-.397-.33-.75-.683-1.056-.348-.311-.818-.466-1.409-.466-.523 0-.98.136-1.375.409-.39.269-.695.65-.915 1.142-.215.488-.323 1.062-.323 1.721 0 .675.106 1.262.318 1.762.216.5.519.888.909 1.165.394.276.856.414 1.386.414.349 0 .665-.06.95-.181.283-.122.524-.296.72-.523.198-.227.338-.5.421-.819h1.341c-.076.516-.263.98-.563 1.393a3.142 3.142 0 0 1-1.176.977c-.484.239-1.049.358-1.693.358Zm8.938 0c-.819 0-1.523-.193-2.114-.58a3.777 3.777 0 0 1-1.364-1.596c-.318-.678-.477-1.453-.477-2.324 0-.886.163-1.669.489-2.347.33-.682.788-1.214 1.375-1.596.59-.387 1.28-.58 2.068-.58.614 0 1.167.114 1.66.341a3.19 3.19 0 0 1 1.21.954c.314.41.509.887.585 1.432h-1.341c-.103-.397-.33-.75-.682-1.056-.349-.311-.818-.466-1.41-.466-.522 0-.98.136-1.374.409-.39.269-.695.65-.915 1.142-.216.488-.324 1.062-.324 1.721 0 .675.106 1.262.318 1.762.216.5.52.888.91 1.165.393.276.855.414 1.386.414.348 0 .664-.06.949-.181.284-.122.524-.296.721-.523.197-.227.337-.5.42-.819h1.342c-.076.516-.264.98-.563 1.393a3.15 3.15 0 0 1-1.176.977c-.485.239-1.05.358-1.693.358Zm8.937 0c-.788 0-1.479-.188-2.074-.563-.59-.375-1.053-.9-1.386-1.573-.33-.675-.494-1.463-.494-2.364 0-.91.164-1.703.494-2.38.333-.679.795-1.205 1.386-1.58.595-.375 1.286-.563 2.074-.563.788 0 1.477.188 2.068.563.595.375 1.057.901 1.387 1.58.333.677.5 1.47.5 2.38 0 .901-.167 1.69-.5 2.364a3.77 3.77 0 0 1-1.387 1.573c-.59.375-1.28.563-2.068.563Zm0-1.205c.599 0 1.091-.153 1.477-.46.387-.307.673-.71.858-1.21.186-.5.279-1.042.279-1.625 0-.584-.093-1.127-.279-1.63a2.75 2.75 0 0 0-.858-1.223c-.386-.31-.878-.465-1.477-.465-.598 0-1.09.155-1.477.465a2.757 2.757 0 0 0-.858 1.222 4.681 4.681 0 0 0-.278 1.63c0 .584.092 1.126.278 1.626.186.5.472.903.858 1.21.386.307.879.46 1.477.46ZM63.462 88v-8.727h1.295v1.318h.091c.16-.432.447-.782.864-1.051a2.542 2.542 0 0 1 1.409-.404c.098 0 .221.002.37.006.147.004.258.01.334.017v1.364a4.008 4.008 0 0 0-.312-.051 3.077 3.077 0 0 0-.506-.04c-.424 0-.803.089-1.136.267a1.954 1.954 0 0 0-1.068 1.778V88h-1.341Zm8.983.182c-.728 0-1.37-.184-1.926-.551-.557-.371-.993-.894-1.307-1.569-.315-.677-.472-1.479-.472-2.403 0-.917.157-1.712.472-2.386.314-.674.751-1.195 1.312-1.563.56-.367 1.209-.55 1.943-.55.569 0 1.017.094 1.347.283.333.186.587.398.761.636.178.235.317.429.415.58h.114v-4.295h1.34V88H75.15v-1.34h-.159a8.63 8.63 0 0 1-.42.601c-.182.239-.442.453-.779.642-.337.186-.786.279-1.346.279Zm.181-1.205c.538 0 .993-.14 1.364-.42.371-.284.654-.676.847-1.176.193-.504.29-1.085.29-1.745 0-.651-.095-1.221-.285-1.71-.19-.492-.47-.875-.84-1.148-.372-.276-.83-.414-1.376-.414-.568 0-1.041.145-1.42.437-.375.288-.657.68-.847 1.176a4.675 4.675 0 0 0-.278 1.66c0 .62.095 1.185.284 1.692.193.504.477.906.852 1.205.38.295.849.443 1.41.443ZM79.086 88v-8.727h1.342V88h-1.341Zm.683-10.182a.953.953 0 0 1-.677-.267.858.858 0 0 1-.278-.642.86.86 0 0 1 .278-.642.954.954 0 0 1 .678-.267c.26 0 .484.089.67.267a.85.85 0 0 1 .284.642.85.85 0 0 1-.284.642.934.934 0 0 1-.67.267Zm6.66 10.364c-.788 0-1.48-.188-2.074-.563-.59-.375-1.053-.9-1.386-1.573-.33-.675-.495-1.463-.495-2.364 0-.91.165-1.703.495-2.38.333-.679.795-1.205 1.386-1.58.595-.375 1.286-.563 2.074-.563.788 0 1.477.188 2.068.563.595.375 1.057.901 1.386 1.58.334.677.5 1.47.5 2.38 0 .901-.166 1.69-.5 2.364a3.769 3.769 0 0 1-1.386 1.573c-.59.375-1.28.563-2.068.563Zm0-1.205c.599 0 1.09-.153 1.477-.46.387-.307.673-.71.858-1.21.186-.5.279-1.042.279-1.625 0-.584-.093-1.127-.279-1.63a2.749 2.749 0 0 0-.858-1.223c-.386-.31-.879-.465-1.477-.465-.599 0-1.09.155-1.477.465a2.741 2.741 0 0 0-.858 1.222 4.679 4.679 0 0 0-.279 1.63c0 .584.093 1.126.279 1.626.185.5.471.903.858 1.21.386.307.879.46 1.477.46Zm7.342-4.227V88h-1.34v-8.727h1.295v1.363h.114c.204-.443.515-.799.931-1.068.417-.272.955-.409 1.614-.409.59 0 1.108.121 1.551.364.443.238.788.602 1.034 1.09.246.486.37 1.1.37 1.841V88h-1.341v-5.454c0-.686-.178-1.22-.534-1.603-.357-.386-.845-.58-1.466-.58-.428 0-.811.093-1.148.279a1.993 1.993 0 0 0-.79.813c-.193.356-.29.787-.29 1.295ZM106.29 88v-8.727h1.341V88h-1.341Zm.682-10.182a.955.955 0 0 1-.677-.267.86.86 0 0 1-.278-.642.86.86 0 0 1 .278-.642.955.955 0 0 1 .677-.267c.261 0 .484.089.67.267a.851.851 0 0 1 .284.642c0 .25-.095.464-.284.642a.934.934 0 0 1-.67.267Zm6.91 1.455v1.136h-4.523v-1.136h4.523Zm-3.204-2.091h1.34V85.5c0 .379.055.663.165.852.114.186.258.31.432.375.178.06.366.091.563.091.147 0 .268-.007.363-.022l.227-.046.273 1.204a2.753 2.753 0 0 1-.38.103c-.163.038-.37.057-.62.057-.379 0-.75-.082-1.113-.245a2.208 2.208 0 0 1-.898-.744c-.235-.333-.352-.754-.352-1.261v-8.682Zm8.786 11c-.84 0-1.566-.186-2.176-.557a3.733 3.733 0 0 1-1.403-1.568c-.326-.674-.489-1.459-.489-2.353 0-.893.163-1.681.489-2.363.329-.686.788-1.22 1.375-1.602.591-.387 1.28-.58 2.068-.58.455 0 .904.076 1.347.227a3.34 3.34 0 0 1 1.21.739c.364.337.653.784.869 1.34.216.558.324 1.243.324 2.058v.568h-6.727v-1.16h5.363c0-.492-.098-.931-.295-1.317a2.225 2.225 0 0 0-.83-.915c-.356-.224-.776-.335-1.261-.335-.534 0-.996.132-1.386.397a2.608 2.608 0 0 0-.892 1.023c-.209.42-.313.871-.313 1.352v.773c0 .66.114 1.218.341 1.676.231.455.551.801.96 1.04.409.235.885.352 1.426.352a2.9 2.9 0 0 0 .955-.148 2.03 2.03 0 0 0 .744-.454c.209-.204.37-.458.483-.761l1.296.363a2.88 2.88 0 0 1-.688 1.16 3.344 3.344 0 0 1-1.193.772 4.426 4.426 0 0 1-1.597.273Zm5.654-.182v-8.727h1.295v1.363h.114c.182-.465.475-.827.881-1.085.405-.261.892-.392 1.46-.392.576 0 1.055.13 1.437.392.387.258.688.62.904 1.085h.091c.223-.45.558-.808 1.005-1.073.447-.27.983-.404 1.608-.404.781 0 1.419.244 1.915.733.496.485.744 1.24.744 2.267V88h-1.34v-5.84c0-.645-.177-1.105-.529-1.382a1.955 1.955 0 0 0-1.244-.414c-.614 0-1.089.185-1.426.556-.337.368-.506.834-.506 1.398V88h-1.364v-5.977c0-.496-.161-.896-.483-1.2-.322-.306-.736-.46-1.244-.46-.348 0-.674.093-.977.279a2.1 2.1 0 0 0-.727.773 2.28 2.28 0 0 0-.273 1.13V88h-1.341Zm22.474-11.636V88h-1.409V77.84h-.068l-2.841 1.887v-1.431l2.909-1.932h1.409Z" fill="#344054"/><path fill-rule="evenodd" clip-rule="evenodd" d="M580.469 76.969a.746.746 0 0 1 .818-.163.746.746 0 0 1 .244.163l8.469 8.47 8.469-8.47a.756.756 0 0 1 .818-.163.756.756 0 0 1 .407.407.746.746 0 0 1 0 .574.751.751 0 0 1-.163.244l-9 9a.745.745 0 0 1-.818.163.745.745 0 0 1-.244-.163l-9-9a.75.75 0 0 1 0-1.062Z" fill="#344054"/><path d="M4 51h618v-2H4v2Zm621 3v56h2V54h-2Zm-3 59H4v2h618v-2ZM1 110V54h-2v56h2Zm3 3a3 3 0 0 1-3-3h-2a5 5 0 0 0 5 5v-2Zm621-3a3 3 0 0 1-3 3v2a5 5 0 0 0 5-5h-2Zm-3-59a3 3 0 0 1 3 3h2a5 5 0 0 0-5-5v2ZM4 49a5 5 0 0 0-5 5h2a3 3 0 0 1 3-3v-2Z" fill="#98A2B3"/><circle cx="21" cy="16" r="12" fill="#344054"/><path d="M23.006 10.364V22h-2.46v-9.301h-.069l-2.665 1.67v-2.181l2.881-1.824h2.313Z" fill="#fff"/><path d="M34 16h73v50" stroke="#344054" stroke-dasharray="2 2"/></svg>
